src/pages/elements/pictograms/images/02_Padding_3_dont.svg

<?xml version="1.0" encoding="UTF-8"?>
<svg width="288px" height="288px" viewBox="0 0 288 288" version="1.1" xmlns="http://www.w3.org/2000/svg" xmlns:xlink="http://www.w3.org/1999/xlink">
    <!-- Generator: Sketch 55.2 (78181) - https://sketchapp.com -->
    <title>Artboard Copy 88</title>
    <desc>Created with Sketch.</desc>
    <defs>
        <polygon id="path-1" points="3 186 187 186 187 2 3 2"></polygon>
    </defs>
    <g id="Artboard-Copy-88" stroke="none" stroke-width="1" fill="none" fill-rule="evenodd">
        <g id="Padding-do-Copy-4">
            <rect id="Rectangle-3" fill="#FFFFFF" x="0" y="0" width="288" height="288"></rect>
            <g id="Group-30" transform="translate(51.000000, 51.000000)" stroke="#DCDCDC" stroke-linecap="square" stroke-width="0.5">
                <g id="Group-3" transform="translate(0.500000, 0.500000)">
                    <g id="Grid-01">
                        <g id="Vertical-lines" transform="translate(0.205100, 0.615299)">
                            <path d="M0.410199557,0 L0.410199557,183.769401" id="Line"></path>
                            <path d="M17.6385809,0 L17.6385809,183.769401" id="Line"></path>
                            <path d="M6.15299335,0 L6.15299335,183.769401" id="Line"></path>
                            <path d="M23.3813747,0 L23.3813747,183.769401" id="Line"></path>
                            <path d="M11.8957871,0 L11.8957871,183.769401" id="Line"></path>
                            <path d="M29.1241685,0 L29.1241685,183.769401" id="Line"></path>
                            <path d="M34.8669623,0 L34.8669623,183.769401" id="Line"></path>
                            <path d="M40.6097561,0 L40.6097561,183.769401" id="Line"></path>
                            <path d="M46.3525499,0 L46.3525499,183.769401" id="Line"></path>
                            <path d="M52.0953437,0 L52.0953437,183.769401" id="Line"></path>
                            <path d="M57.8381375,0 L57.8381375,183.769401" id="Line"></path>
                            <path d="M63.5809313,0 L63.5809313,183.769401" id="Line"></path>
                            <path d="M69.3237251,0 L69.3237251,183.769401" id="Line"></path>
                            <path d="M75.0665188,0 L75.0665188,183.769401" id="Line"></path>
                            <path d="M80.8093126,0 L80.8093126,183.769401" id="Line"></path>
                            <path d="M86.5521064,0 L86.5521064,183.769401" id="Line"></path>
                            <path d="M92.2949002,0 L92.2949002,183.769401" id="Line"></path>
                            <path d="M98.037694,0 L98.037694,183.769401" id="Line"></path>
                            <path d="M103.780488,0 L103.780488,183.769401" id="Line"></path>
                            <path d="M109.523282,0 L109.523282,183.769401" id="Line"></path>
                            <path d="M115.266075,0 L115.266075,183.769401" id="Line"></path>
                            <path d="M121.008869,0 L121.008869,183.769401" id="Line"></path>
                            <path d="M126.751663,0 L126.751663,183.769401" id="Line"></path>
                            <path d="M132.494457,0 L132.494457,183.769401" id="Line"></path>
                            <path d="M138.237251,0 L138.237251,183.769401" id="Line"></path>
                            <path d="M143.980044,0 L143.980044,183.769401" id="Line"></path>
                            <path d="M149.722838,0 L149.722838,183.769401" id="Line"></path>
                            <path d="M155.465632,0 L155.465632,183.769401" id="Line"></path>
                            <path d="M161.208426,0 L161.208426,183.769401" id="Line"></path>
                            <path d="M166.95122,0 L166.95122,183.769401" id="Line"></path>
                            <path d="M172.694013,0 L172.694013,183.769401" id="Line"></path>
                            <path d="M178.436807,0 L178.436807,183.769401" id="Line"></path>
                            <path d="M184.179601,0 L184.179601,183.769401" id="Line"></path>
                        </g>
                        <g id="Horizontal" transform="translate(92.500000, 92.500000) rotate(90.000000) translate(-92.500000, -92.500000) translate(0.205100, 0.615299)">
                            <path d="M0.410199557,0 L0.410199557,183.769401" id="Line"></path>
                            <path d="M17.6385809,0 L17.6385809,183.769401" id="Line"></path>
                            <path d="M6.15299335,0 L6.15299335,183.769401" id="Line"></path>
                            <path d="M23.3813747,0 L23.3813747,183.769401" id="Line"></path>
                            <path d="M11.8957871,0 L11.8957871,183.769401" id="Line"></path>
                            <path d="M29.1241685,0 L29.1241685,183.769401" id="Line"></path>
                            <path d="M34.8669623,0 L34.8669623,183.769401" id="Line"></path>
                            <path d="M40.6097561,0 L40.6097561,183.769401" id="Line"></path>
                            <path d="M46.3525499,0 L46.3525499,183.769401" id="Line"></path>
                            <path d="M52.0953437,0 L52.0953437,183.769401" id="Line"></path>
                            <path d="M57.8381375,0 L57.8381375,183.769401" id="Line"></path>
                            <path d="M63.5809313,0 L63.5809313,183.769401" id="Line"></path>
                            <path d="M69.3237251,0 L69.3237251,183.769401" id="Line"></path>
                            <path d="M75.0665188,0 L75.0665188,183.769401" id="Line"></path>
                            <path d="M80.8093126,0 L80.8093126,183.769401" id="Line"></path>
                            <path d="M86.5521064,0 L86.5521064,183.769401" id="Line"></path>
                            <path d="M92.2949002,0 L92.2949002,183.769401" id="Line"></path>
                            <path d="M98.037694,0 L98.037694,183.769401" id="Line"></path>
                            <path d="M103.780488,0 L103.780488,183.769401" id="Line"></path>
                            <path d="M109.523282,0 L109.523282,183.769401" id="Line"></path>
                            <path d="M115.266075,0 L115.266075,183.769401" id="Line"></path>
                            <path d="M121.008869,0 L121.008869,183.769401" id="Line"></path>
                            <path d="M126.751663,0 L126.751663,183.769401" id="Line"></path>
                            <path d="M132.494457,0 L132.494457,183.769401" id="Line"></path>
                            <path d="M138.237251,0 L138.237251,183.769401" id="Line"></path>
                            <path d="M143.980044,0 L143.980044,183.769401" id="Line"></path>
                            <path d="M149.722838,0 L149.722838,183.769401" id="Line"></path>
                            <path d="M155.465632,0 L155.465632,183.769401" id="Line"></path>
                            <path d="M161.208426,0 L161.208426,183.769401" id="Line"></path>
                            <path d="M166.95122,0 L166.95122,183.769401" id="Line"></path>
                            <path d="M172.694013,0 L172.694013,183.769401" id="Line"></path>
                            <path d="M178.436807,0 L178.436807,183.769401" id="Line"></path>
                            <path d="M184.179601,0 L184.179601,183.769401" id="Line"></path>
                        </g>
                    </g>
                </g>
            </g>
        </g>
        <path d="M52,52 L236,52 L236,236 L52,236 L52,52 Z M57.75,57.75 L57.75,230.25 L230.25,230.25 L230.25,57.75 L57.75,57.75 Z" id="Combined-Shape-Copy-7" fill="#97C1FF" fill-rule="nonzero" opacity="0.6"></path>
        <g id="Group-13-Copy-3" transform="translate(49.000000, 50.000000)">
            <path d="M173.660583,82.7859444 L157.911333,55.5539444 L168.479833,49.4531944 L184.252083,76.6794444 L173.660583,82.7859444 Z M146.342333,57.4514444 L137.746083,55.3641944 L140.241583,46.8829444 L167.249333,31.3004444 L173.344333,41.8689444 L146.342333,57.4514444 Z M131.225583,70.9351944 L121.002083,53.2251944 C125.590583,51.6726944 130.834583,53.5299444 133.353083,57.8999444 C135.877333,62.2699444 134.871083,67.7209444 131.225583,70.9351944 L131.225583,70.9351944 Z M132.024833,10.9971944 L142.599083,4.89644444 L158.078083,31.8179444 L147.515333,37.9071944 L132.024833,10.9971944 Z M188.875083,76.4034444 L172.067833,47.3889444 L177.208333,44.4161944 C177.685583,44.1401944 178.036333,43.6916944 178.174333,43.1569444 C178.318083,42.6336944 178.243333,42.0644444 177.967333,41.5929444 L169.796583,27.4421944 C169.227333,26.4416944 167.962333,26.1196944 166.973333,26.6831944 L161.666083,29.7421944 L145.152083,1.03244444 C144.876083,0.555194444 144.421833,0.210194444 143.892833,0.0664444444 C143.352333,-0.0658055556 142.788833,-0.00255555556 142.323083,0.273444444 L128.166583,8.44419444 C127.177583,9.01344444 126.832583,10.2841944 127.401833,11.2674444 L143.921583,39.9771944 L137.452833,43.7089444 C136.992833,43.9734444 136.647833,44.4046944 136.498333,44.9164444 L134.255833,52.5409444 C132.525083,50.9136944 130.449333,49.6716944 128.091833,49.0391944 C124.319833,48.0444444 120.398333,48.5504444 117.034583,50.4996944 C116.039833,51.0689444 115.706333,52.3339444 116.281333,53.3229444 L121.358583,62.1261944 L117.051833,64.6159444 L119.121833,68.1981944 L123.434333,65.7084444 L128.776083,74.9774444 C129.052083,75.4546944 129.500583,75.7996944 130.035333,75.9434444 C130.207833,75.9836944 130.391833,76.0124444 130.570083,76.0124444 C130.926583,76.0124444 131.288833,75.9204444 131.605083,75.7306944 C137.297583,72.4474444 139.867833,65.8866944 138.436083,59.7916944 L146.169833,61.6661944 C146.330833,61.7064444 146.491833,61.7294444 146.658583,61.7294444 C147.015083,61.7294444 147.377333,61.6316944 147.687833,61.4476944 L154.323333,57.6181944 L171.113333,86.6499444 C171.492833,87.3111944 172.188583,87.6849444 172.901583,87.6849444 C173.258083,87.6849444 173.608833,87.5929444 173.936583,87.4031944 L188.116083,79.2324444 C188.593333,78.9621944 188.938333,78.5079444 189.082083,77.9731944 C189.220083,77.4441944 189.145333,76.8806944 188.875083,76.4034444 L188.875083,76.4034444 Z" id="Fill-1" fill="#000000"></path>
            <path d="M136.289025,176.291125 L134.213275,172.708875 C155.160525,160.564875 167.672525,139.738375 167.678275,116.997125 L171.824025,116.997125 C171.818275,141.227625 158.530025,163.393875 136.289025,176.291125" id="Fill-3" fill="#000000"></path>
            <path d="M100.146375,101.117225 L90.365625,118.154475 C89.940125,118.890475 89.940125,119.804725 90.365625,120.534975 L99.082625,135.697725 C99.513875,136.439475 100.301625,136.899475 101.164125,136.899475 L109.668375,136.899475 C109.840875,135.162975 109.927125,133.403475 109.927125,131.626725 C109.927125,120.258975 106.298875,109.724975 100.146375,101.117225 L100.146375,101.117225 Z M9.859875,109.178725 C6.628375,115.992475 4.822875,123.599725 4.822875,131.626725 C4.822875,150.308475 14.620875,166.741975 29.346625,176.062725 L37.925625,161.227725 C38.351125,160.491725 38.351125,159.571725 37.925625,158.835725 L32.687375,149.756475 C31.157875,147.122975 31.646625,143.822475 33.866125,141.723725 L41.795375,134.271725 C42.611875,133.506975 42.790125,132.293725 42.232375,131.327725 L36.315625,121.081225 C35.890125,120.339475 35.096625,119.885225 34.239875,119.885225 L19.836125,119.885225 C17.513125,119.885225 15.345375,118.631725 14.183875,116.624975 L9.859875,109.178725 Z M32.928875,178.144225 C35.205875,179.340225 37.574875,180.375225 40.030125,181.243475 L67.555375,155.126975 C68.371875,154.356475 68.550125,153.143225 67.992375,152.177225 L47.022125,115.750975 C45.492625,113.105975 45.987125,109.799725 48.218125,107.706725 L62.018125,94.981975 C62.828875,94.222975 63.012875,93.009725 62.449375,92.043725 L54.985875,79.123475 C36.769875,79.939975 20.934375,90.082975 12.148375,104.877725 L17.766125,114.549225 C18.191625,115.285225 18.985125,115.739475 19.836125,115.739475 L34.239875,115.739475 C36.568625,115.739475 38.742125,116.998725 39.903625,119.011225 L45.814625,129.257725 C47.338375,131.896975 46.849625,135.197475 44.635875,137.290475 L36.706625,144.748225 C35.884375,145.512975 35.711875,146.720475 36.269625,147.686475 L41.507875,156.765725 C42.675125,158.772475 42.675125,161.285225 41.507875,163.297725 L32.928875,178.144225 Z M44.601375,182.611975 C48.695375,183.635475 52.973375,184.175975 57.377875,184.175975 C83.137875,184.175975 104.631375,165.540225 109.087625,141.039475 L101.164125,141.039475 C98.829625,141.039475 96.656125,139.785975 95.488875,137.761975 L86.777625,122.604975 C85.621875,120.609725 85.616125,118.108475 86.771875,116.090225 L97.392125,97.598225 C88.232375,86.839975 74.811875,79.801975 59.769875,79.123475 L66.031625,89.973725 C67.561125,92.612975 67.072375,95.919225 64.835625,98.012225 L51.035625,110.742725 C50.224875,111.501725 50.046625,112.714975 50.604375,113.686725 L71.574625,150.112975 C73.098375,152.746475 72.615375,156.041225 70.401625,158.128475 L44.601375,182.611975 Z M57.377875,188.321725 C51.386375,188.321725 45.613375,187.384475 40.185375,185.653725 C39.989875,185.619225 39.800125,185.561725 39.616125,185.469725 C36.016625,184.279475 32.566625,182.732725 29.329375,180.881225 C29.225875,180.840975 29.122375,180.794975 29.030375,180.743225 C28.932625,180.685725 28.846375,180.622475 28.760125,180.553475 C11.975875,170.703725 0.677125,152.458975 0.677125,131.626725 C0.677125,100.363975 26.115125,74.925975 57.377875,74.925975 C88.634875,74.925975 114.072875,100.363975 114.072875,131.626725 C114.072875,162.883725 88.634875,188.321725 57.377875,188.321725 L57.377875,188.321725 Z" id="Fill-5" fill="#000000"></path>
            <path d="M63.43135,13.5 L66.03035,10.901 C66.8411,10.09025 66.8411,8.77925 66.03035,7.9685 C65.22535,7.15775 63.9086,7.15775 63.09785,7.9685 L60.49885,10.5675 L57.89985,7.9685 C57.0891,7.15775 55.7781,7.15775 54.96735,7.9685 C54.16235,8.77925 54.16235,10.09025 54.96735,10.901 L57.56635,13.5 L54.96735,16.099 C54.16235,16.90975 54.16235,18.22075 54.96735,19.0315 C55.3756,19.434 55.9046,19.63525 56.4336,19.63525 C56.9626,19.63525 57.49735,19.434 57.89985,19.0315 L60.49885,16.4325 L63.09785,19.0315 C63.5061,19.434 64.0351,19.63525 64.5641,19.63525 C65.0931,19.63525 65.62785,19.434 66.03035,19.0315 C66.8411,18.22075 66.8411,16.90975 66.03035,16.099 L63.43135,13.5 Z" id="Fill-7" fill="#000000"></path>
            <path d="M17.43135,48 L20.03035,45.401 C20.8411,44.59025 20.8411,43.27925 20.03035,42.4685 C19.22535,41.65775 17.9086,41.65775 17.09785,42.4685 L14.49885,45.0675 L11.89985,42.4685 C11.0891,41.65775 9.7781,41.65775 8.96735,42.4685 C8.16235,43.27925 8.16235,44.59025 8.96735,45.401 L11.56635,48 L8.96735,50.599 C8.16235,51.40975 8.16235,52.72075 8.96735,53.5315 C9.3756,53.934 9.9046,54.13525 10.4336,54.13525 C10.9626,54.13525 11.49735,53.934 11.89985,53.5315 L14.49885,50.9325 L17.09785,53.5315 C17.5061,53.934 18.0351,54.13525 18.5641,54.13525 C19.0931,54.13525 19.62785,53.934 20.03035,53.5315 C20.8411,52.72075 20.8411,51.40975 20.03035,50.599 L17.43135,48 Z" id="Fill-9" fill="#000000"></path>
            <mask id="mask-2" fill="white">
                <use xlink:href="#path-1"></use>
            </mask>
            <g id="Clip-12"></g>
            <polygon id="Fill-11" mask="url(#mask-2)" points="3 186 187 186 187 2 3 2"></polygon>
        </g>
    </g>
</svg>

<svg xmlns="http://www.w3.org/2000/svg" xmlns:xlink="http://www.w3.org/1999/xlink" viewBox="0 0 288 288"><defs><path id="a" d="M3 186h184V2H3z"/></defs><g fill="none" fill-rule="evenodd"><path fill="#FFF" d="M0 0h288v288H0z"/><g stroke="#DCDCDC" stroke-linecap="square" stroke-width=".5"><path d="M52.115 52.115v183.77m17.229-183.77v183.77M57.858 52.115v183.77m17.228-183.77v183.77M63.6 52.115v183.77m17.23-183.77v183.77m5.742-183.77v183.77m5.743-183.77v183.77m5.743-183.77v183.77m5.742-183.77v183.77m5.743-183.77v183.77m5.743-183.77v183.77m5.743-183.77v183.77m5.743-183.77v183.77m5.742-183.77v183.77m5.743-183.77v183.77M144 52.115v183.77m5.743-183.77v183.77m5.743-183.77v183.77m5.742-183.77v183.77m5.743-183.77v183.77m5.743-183.77v183.77m5.743-183.77v183.77m5.743-183.77v183.77m5.742-183.77v183.77m5.743-183.77v183.77m5.743-183.77v183.77m5.742-183.77v183.77m5.744-183.77v183.77m5.742-183.77v183.77m5.744-183.77v183.77m5.742-183.77v183.77m5.743-183.77v183.77M235.885 52.115H52.115m183.77 17.229H52.115m183.77-11.486H52.115m183.77 17.228H52.115M235.885 63.6H52.115m183.77 17.23H52.115m183.77 5.742H52.115m183.77 5.743H52.115m183.77 5.743H52.115m183.77 5.742H52.115m183.77 5.743H52.115m183.77 5.743H52.115m183.77 5.743H52.115m183.77 5.743H52.115m183.77 5.742H52.115m183.77 5.743H52.115M235.885 144H52.115m183.77 5.743H52.115m183.77 5.743H52.115m183.77 5.742H52.115m183.77 5.743H52.115m183.77 5.743H52.115m183.77 5.743H52.115m183.77 5.743H52.115m183.77 5.742H52.115m183.77 5.743H52.115m183.77 5.743H52.115m183.77 5.742H52.115m183.77 5.744H52.115m183.77 5.742H52.115m183.77 5.744H52.115m183.77 5.742H52.115m183.77 5.743H52.115"/></g><path d="M52 52h184v184H52V52zm5.75 5.75v172.5h172.5V57.75H57.75z" fill="#97C1FF" fill-rule="nonzero" opacity=".6"/><g transform="translate(49 50)"><path d="M173.66 82.786l-15.749-27.232 10.569-6.1 15.772 27.225-10.591 6.107zM146.343 57.45l-8.596-2.087 2.496-8.481L167.249 31.3l6.095 10.569-27.002 15.582zm-15.116 13.484l-10.224-17.71c4.589-1.552 9.833.305 12.351 4.675 2.524 4.37 1.518 9.82-2.127 13.035zm.799-59.938l10.574-6.1 15.48 26.92-10.564 6.09-15.49-26.91zm56.85 65.406L172.068 47.39l5.14-2.973c.478-.276.828-.724.966-1.26a2.041 2.041 0 00-.207-1.563l-8.17-14.15a2.063 2.063 0 00-2.824-.76l-5.307 3.06-16.514-28.71a2.084 2.084 0 00-1.26-.967c-.54-.132-1.103-.069-1.569.207l-14.156 8.171a2.071 2.071 0 00-.765 2.823l16.52 28.71-6.47 3.732c-.46.264-.804.696-.954 1.207l-2.242 7.625c-1.73-1.627-3.807-2.87-6.164-3.502-3.772-.995-7.694-.489-11.057 1.46a2.056 2.056 0 00-.754 2.824l5.078 8.803-4.307 2.49 2.07 3.582 4.312-2.49 5.342 9.27a2.066 2.066 0 002.829.753c5.693-3.284 8.263-9.844 6.831-15.94l7.734 1.875a2.005 2.005 0 001.518-.218l6.635-3.83 16.79 29.032a2.063 2.063 0 001.789 1.035c.356 0 .707-.092 1.035-.282l14.18-8.17c.476-.27.821-.725.965-1.26a2.108 2.108 0 00-.207-1.57zm-52.587 99.889l-2.076-3.582c20.948-12.144 33.46-32.97 33.465-55.712h4.146c-.006 24.23-13.294 46.397-35.535 59.294m-36.143-75.174l-9.78 17.037a2.38 2.38 0 000 2.381l8.717 15.163a2.405 2.405 0 002.081 1.201h8.504c.173-1.736.26-3.496.26-5.272a52.3 52.3 0 00-9.782-30.51zM9.86 109.18a52.235 52.235 0 00-5.037 22.448c0 18.681 9.798 35.115 24.524 44.436l8.579-14.835a2.4 2.4 0 000-2.392l-5.239-9.08c-1.53-2.633-1.04-5.934 1.18-8.032l7.928-7.452a2.386 2.386 0 00.437-2.944l-5.916-10.247a2.39 2.39 0 00-2.076-1.196H19.836a6.556 6.556 0 01-5.652-3.26L9.86 109.18zm23.069 68.965a53.907 53.907 0 007.101 3.1l27.525-26.117c.817-.77.995-1.984.437-2.95l-20.97-36.426a6.513 6.513 0 011.196-8.044l13.8-12.725c.81-.759.995-1.972.431-2.938l-7.463-12.92c-18.216.816-34.052 10.959-42.838 25.754l5.618 9.671a2.395 2.395 0 002.07 1.19H34.24a6.566 6.566 0 015.664 3.272l5.91 10.247a6.525 6.525 0 01-1.178 8.032l-7.93 7.458a2.37 2.37 0 00-.436 2.938l5.238 9.08a6.53 6.53 0 010 6.532l-8.58 14.846zm11.672 4.468a52.608 52.608 0 0012.777 1.564c25.76 0 47.253-18.636 51.71-43.137h-7.924a6.566 6.566 0 01-5.675-3.277l-8.711-15.157a6.554 6.554 0 01-.006-6.515l10.62-18.492c-9.16-10.758-22.58-17.796-37.622-18.475l6.262 10.85a6.499 6.499 0 01-1.196 8.04l-13.8 12.73a2.39 2.39 0 00-.432 2.944l20.97 36.426a6.5 6.5 0 01-1.172 8.015l-25.8 24.484zm12.777 5.71a56.487 56.487 0 01-17.193-2.668 2.059 2.059 0 01-.569-.184 56.417 56.417 0 01-10.287-4.589 2.371 2.371 0 01-.299-.138 2.272 2.272 0 01-.27-.19C11.976 170.703.677 152.46.677 131.627c0-31.263 25.438-56.701 56.7-56.701 31.258 0 56.696 25.438 56.696 56.7 0 31.258-25.438 56.696-56.695 56.696zM63.431 13.5l2.6-2.599c.81-.81.81-2.122 0-2.933a2.072 2.072 0 00-2.933 0l-2.6 2.6-2.598-2.6a2.072 2.072 0 00-2.933 0 2.082 2.082 0 000 2.933l2.6 2.599-2.6 2.599a2.082 2.082 0 000 2.933 2.082 2.082 0 002.933 0l2.599-2.6 2.599 2.6a2.082 2.082 0 002.932 0 2.072 2.072 0 000-2.933L63.431 13.5zm-46 34.5l2.6-2.599c.81-.81.81-2.122 0-2.933a2.072 2.072 0 00-2.933 0l-2.6 2.6-2.598-2.6a2.072 2.072 0 00-2.933 0 2.082 2.082 0 000 2.933l2.6 2.599-2.6 2.599a2.082 2.082 0 000 2.933 2.082 2.082 0 002.933 0l2.599-2.6 2.599 2.6a2.082 2.082 0 002.932 0 2.072 2.072 0 000-2.933L17.431 48z" fill="#000"/><mask id="b" fill="#fff"><use xlink:href="#a"/></mask><path mask="url(#b)" d="M3 186h184V2H3z"/></g></g></svg>
